app/dist/common/images/edison-international.svg

<svg height="18" width="18" xmlns="http://www.w3.org/2000/svg"><path d="m0 0h18v18h-18z" fill="#f0f3fa"/><path d="m4 13.995h10v-9.995h-10z" fill="#fff"/><path d="m4.007 10.531 4.454.378-3.266-2.387 3.745 1.364-3.6-4.554 4.56 3.57-1.37-3.709 2.274 3.152-.202-4.34 1.426 4.353.971-4.358h-8.999v8.998l4.408-.907z" fill="#ffd046"/><path d="m4 13h9v-9h1v10h-10z" fill="#006a53"/></svg>

<!-- by TradingView --><svg width="18" height="18" xmlns="http://www.w3.org/2000/svg"><path fill="#F0F3FA" d="M0 0h18v18H0z"/><path d="M4 13.995h10V4H4v9.995z" fill="#fff"/><path d="M4.007 10.531l4.454.378-3.266-2.387L8.94 9.886 5.34 5.332l4.56 3.57-1.37-3.709 2.274 3.152-.202-4.34 1.426 4.353L12.999 4H4v8.998l4.408-.907-4.401-1.56z" fill="#FFD046"/><path d="M4 13h9V4h1v10H4v-1z" fill="#006A53"/></svg>
